packages/landing-ui/public/cactus-1.svg

<svg width="73" height="77" viewBox="0 0 73 77" fill="none" xmlns="http://www.w3.org/2000/svg">
<path d="M52.2661 47.1927L48.3955 35.3003L48.3346 35.3206C48.3872 35.3022 53.6714 33.4126 60.4654 27.0214C62.9808 24.655 66.9383 24.7758 69.3046 27.2915C71.6708 29.807 71.5499 33.7645 69.0345 36.1307C60.1808 44.4593 53.0501 46.9375 52.2661 47.1927Z" fill="#27AE60"/>
<path d="M20.7344 47.1927L24.605 35.3003L24.6659 35.3206C24.6132 35.3022 19.3291 33.4126 12.5351 27.0214C10.0196 24.655 6.06213 24.7758 3.69589 27.2915C1.32965 29.807 1.45056 33.7645 3.96599 36.1307C12.8196 44.4593 19.9504 46.9375 20.7344 47.1927Z" fill="#27AE60"/>
<path d="M11.1807 26.052C11.1992 26.4032 11.222 26.7543 11.255 27.105L12.7528 43.0918C17.1818 45.9724 20.2369 47.0307 20.7345 47.1928L24.6051 35.3004L24.666 35.3207C24.6134 35.3024 19.3293 33.4127 12.5352 27.0216C12.1188 26.6298 11.6624 26.3077 11.1807 26.052Z" fill="#27AE60"/>
<path d="M61.7457 27.105C61.7786 26.7543 61.8015 26.4032 61.82 26.052C61.3383 26.3078 60.8818 26.6298 60.4655 27.0216C53.6715 33.4127 48.3874 35.3024 48.3347 35.3207L48.3957 35.3004L52.2663 47.1928C52.7639 47.0309 55.8189 45.9726 60.2479 43.0918L61.7457 27.105Z" fill="#27AE60"/>
<path d="M49.2972 8.09087C45.7584 5.35512 41.3193 3.72729 36.5002 3.72729C31.6811 3.72729 27.242 5.35512 23.7032 8.09087C18.0252 12.4802 15.0776 19.5387 15.7469 26.6841L17.9123 49.7961L36.5002 54.0305L55.0882 49.7961L57.2535 26.6841C57.923 19.5387 54.9754 12.4802 49.2972 8.09087Z" fill="#27AE60"/>
<path d="M52.7689 7.29856C52.4906 6.78768 52.397 6.19665 52.5037 5.62471C52.8298 3.87793 51.3003 2.34846 49.5535 2.67451C48.9817 2.78128 48.3906 2.68759 47.8797 2.40937C46.3192 1.55951 44.3918 2.54141 44.1622 4.30353C44.087 4.88028 43.8152 5.41356 43.3928 5.81345C42.1023 7.03492 42.4407 9.17137 44.0455 9.9343C44.5708 10.1841 44.994 10.6073 45.2438 11.1326C46.0067 12.7374 48.1432 13.0758 49.3646 11.7853C49.7645 11.3629 50.2978 11.0911 50.8746 11.0159C52.6367 10.7864 53.6187 8.85901 52.7689 7.29856Z" fill="#F6376D"/>
<path d="M36.5002 54.0304L16.0464 58.2648L18.5471 71.0817C19.09 73.8639 21.5275 75.8719 24.3622 75.8719H48.6382C51.4729 75.8719 53.9105 73.864 54.4534 71.0817L56.9541 58.2648L36.5002 54.0304Z" fill="#F6376D"/>
<path d="M24.5628 71.0818L22.0622 58.2649L39.508 54.6532L36.5002 54.0304L16.0464 58.2648L18.5471 71.0817C19.09 73.8639 21.5275 75.8719 24.3622 75.8719H30.3778C27.5431 75.8719 25.1056 73.864 24.5628 71.0818Z" fill="#DE3263"/>
<path d="M56.9541 49.796H16.0464C14.7398 49.796 13.6806 50.8552 13.6806 52.1618V55.8992C13.6806 57.2058 14.7398 58.265 16.0464 58.265H56.9541C58.2607 58.265 59.3199 57.2058 59.3199 55.8992V52.1618C59.3199 50.8552 58.2607 49.796 56.9541 49.796Z" fill="#EFEDEE"/>
<path d="M19.6964 55.8991V52.1618C19.6964 50.8552 20.7556 49.7961 22.0622 49.7961H16.0466C14.74 49.7961 13.6808 50.8552 13.6808 52.1618V55.8991C13.6808 57.2057 14.74 58.2648 16.0466 58.2648H22.0622C20.7556 58.2648 19.6964 57.2056 19.6964 55.8991Z" fill="#D2D2D2"/>
<path d="M25.5918 26.3284C24.9689 26.3284 24.4639 26.8334 24.4639 27.4563V29.4302C24.4639 30.0531 24.9689 30.5581 25.5918 30.5581C26.2147 30.5581 26.7197 30.0531 26.7197 29.4302V27.4563C26.7197 26.8334 26.2147 26.3284 25.5918 26.3284Z" fill="black"/>
<path d="M47.4052 30.5582C48.0281 30.5582 48.5331 30.0532 48.5331 29.4303V27.4564C48.5331 26.8335 48.0281 26.3285 47.4052 26.3285C46.7822 26.3285 46.2772 26.8335 46.2772 27.4564V29.4303C46.2772 30.0531 46.7822 30.5582 47.4052 30.5582Z" fill="black"/>
<path d="M36.4984 31.6119C37.873 31.6119 39.1638 31.0373 40.0395 30.0354C40.4495 29.5663 40.4016 28.8539 39.9326 28.4438C39.4635 28.0337 38.7509 28.0817 38.341 28.5506C37.8936 29.0623 37.2221 29.3559 36.4984 29.3559C35.7747 29.3559 35.1031 29.0623 34.6558 28.5506C34.2459 28.0815 33.5333 28.0337 33.0642 28.4436C32.5952 28.8536 32.5473 29.5662 32.9573 30.0352C33.8332 31.0371 35.1238 31.6119 36.4984 31.6119Z" fill="black"/>
<path d="M47.8381 9.19055C48.8613 9.19055 49.6908 8.36108 49.6908 7.33789C49.6908 6.31469 48.8613 5.48523 47.8381 5.48523C46.8149 5.48523 45.9855 6.31469 45.9855 7.33789C45.9855 8.36108 46.8149 9.19055 47.8381 9.19055Z" fill="black"/>
<path d="M72.1259 31.8014C72.1861 29.8307 71.4753 27.9547 70.1245 26.5186C68.7353 25.0418 66.7753 24.1948 64.7471 24.1948C62.8609 24.1948 61.0653 24.9069 59.6907 26.2C59.2371 26.6266 58.7763 27.0418 58.3128 27.4492L58.3746 26.7893C58.6996 23.3206 58.2103 19.8607 56.9986 16.6855L58.5565 16.0385C59.1319 15.7997 59.4045 15.1395 59.1656 14.5643C58.9267 13.989 58.2667 13.7162 57.6913 13.9553L56.088 14.6213C55.3783 13.2112 54.517 11.8762 53.513 10.6433C53.6207 10.4935 53.7192 10.3357 53.8043 10.1685C54.3522 9.09335 54.3346 7.81879 53.7574 6.75914C53.6037 6.47701 53.5515 6.14766 53.6104 5.83184C53.8108 4.7594 53.5265 3.66411 52.831 2.82674C52.1321 1.9853 51.1091 1.50255 50.0245 1.50255C49.4666 1.50255 48.9435 1.70588 48.4172 1.41893C47.8794 1.12597 47.2755 0.971221 46.6713 0.971221C45.0239 0.971221 43.5997 2.08005 43.1562 3.62396C41.3649 3.05698 39.5131 2.72357 37.626 2.62867V1.12793C37.626 0.505011 37.121 0 36.4981 0C35.8752 0 35.3702 0.505011 35.3702 1.12793V2.62852C31.9616 2.79771 28.702 3.73374 25.7622 5.37901L24.9125 3.97813C24.5896 3.44544 23.8959 3.27565 23.3632 3.59869C22.8305 3.92173 22.6607 4.61533 22.9837 5.14801L23.8522 6.58003C23.5683 6.7793 23.2877 6.98503 23.0113 7.19858C20.4584 9.17201 18.3678 11.7181 16.905 14.6199L15.3051 13.9555C14.73 13.7167 14.0697 13.9892 13.8308 14.5644C13.5919 15.1398 13.8645 15.7999 14.4399 16.0387L15.9954 16.6848C14.7759 19.8837 14.3004 23.3588 14.6217 26.7895L14.6835 27.4492C14.2202 27.042 13.7596 26.6269 13.3058 26.2001C11.9314 24.907 10.1356 24.1949 8.2494 24.1949C6.22123 24.1949 4.2612 25.0419 2.87204 26.5188C0.0835043 29.4833 0.226525 34.1637 3.19102 36.9523C8.53634 41.9807 13.2774 44.927 16.4745 46.564L16.6717 48.6681H16.0443C14.1179 48.6681 12.5507 50.2353 12.5507 52.1618V55.8992C12.5507 57.4944 13.6257 58.8423 15.0892 59.2591L17.4381 71.2978C18.0827 74.6019 20.9939 77 24.3603 77H48.6363C52.0026 77 54.9137 74.6019 55.5584 71.2978L57.9074 59.2591C59.3707 58.8423 60.4458 57.4944 60.4458 55.8992V52.1618C60.4458 50.2353 58.8786 48.6681 56.9523 48.6681H56.3248L56.522 46.564C59.7191 44.927 64.4602 41.9806 69.8055 36.9523C71.2416 35.6015 72.0656 33.7721 72.1259 31.8014ZM46.6716 3.22708C46.9035 3.22708 47.1277 3.28528 47.3386 3.40002C48.071 3.79886 48.9392 3.93647 49.7589 3.78337C50.7135 3.60501 51.5704 4.46885 51.3934 5.41781C51.2395 6.2421 51.3756 7.10173 51.7767 7.83819C52.0011 8.25026 52.0077 8.7264 51.7946 9.14433C51.5898 9.54633 51.1894 9.83237 50.7428 9.89463C49.9065 10.0109 49.1262 10.3948 48.5438 11.0101C48.0428 11.5393 47.179 11.5907 46.6216 11.1188C46.3852 10.9186 46.2675 10.6326 46.1142 10.3714C45.7477 9.7462 45.1833 9.2269 44.5282 8.91574C44.1044 8.71437 43.8193 8.33298 43.7459 7.86948C43.6737 7.41334 43.8312 6.95014 44.1667 6.63267C44.7721 6.05983 45.1714 5.27584 45.2791 4.4493C45.3824 3.65554 46.0738 3.22708 46.6716 3.22708ZM4.73703 35.3091C2.67864 33.3728 2.57923 30.1227 4.51566 28.0643C5.4944 27.0238 6.82069 26.4508 8.24985 26.4508C9.55945 26.4508 10.8062 26.9453 11.7606 27.8431C12.8122 28.8324 13.8949 29.7765 14.9843 30.6548L16.2226 43.8723C13.2383 42.212 9.21701 39.5235 4.73703 35.3091ZM29.5328 50.924H56.9523C57.6347 50.924 58.19 51.4792 58.19 52.1618V55.8992C58.19 56.5818 57.6347 57.1371 56.9523 57.1371H49.0835C48.4606 57.1371 47.9556 57.6421 47.9556 58.265C47.9556 58.8879 48.4606 59.3929 49.0835 59.3929H55.583L53.3445 70.8659C52.906 73.113 50.926 74.744 48.6364 74.744H24.3604C22.0709 74.744 20.0908 73.113 19.6524 70.8657L17.4139 59.3928H44.5718C45.1947 59.3928 45.6998 58.8877 45.6998 58.2648C45.6998 57.6419 45.1947 57.1369 44.5718 57.1369H16.0446C15.3621 57.1369 14.8069 56.5817 14.8069 55.899V52.1617C14.8069 51.4791 15.3621 50.9238 16.0446 50.9238H25.0211C25.644 50.9238 26.149 50.4188 26.149 49.7959C26.149 49.173 25.644 48.668 25.0211 48.668H18.9378C18.9378 48.668 18.6627 45.732 18.6627 45.7316L17.2014 30.1339L16.8683 26.5788C16.5812 23.5137 17.0011 20.4101 18.0804 17.5503L19.2414 18.0324C19.8093 18.2682 20.4797 17.9913 20.7157 17.4235C20.9547 16.8481 20.682 16.188 20.1066 15.9492L18.9964 15.4881C20.3039 12.9473 22.148 10.7173 24.3912 8.98312C24.6 8.82175 24.8116 8.66549 25.0253 8.5133C25.0253 8.5133 25.6795 9.59205 25.6801 9.5928C25.9988 10.1183 26.7042 10.2909 27.2294 9.97223C27.7621 9.64934 27.9319 8.95559 27.6088 8.42291L26.9348 7.31153C29.5212 5.87861 32.3806 5.05552 35.3706 4.88994V6.32647C35.3706 6.94939 35.8757 7.4544 36.4986 7.4544C37.1215 7.4544 37.6265 6.94939 37.6265 6.32647V4.88949C39.1384 4.97416 40.625 5.22637 42.0687 5.64896C42.0662 5.65287 42.0642 5.65708 42.0617 5.66099C41.5763 6.40648 41.3787 7.34341 41.5178 8.22229C41.7066 9.41413 42.47 10.4348 43.5597 10.9529C43.8483 11.0901 44.0864 11.3283 44.2237 11.6169C44.7884 12.8047 46.0181 13.6284 47.3328 13.6974C48.3889 13.7529 49.4512 13.3312 50.1791 12.5639C50.1802 12.5629 50.1812 12.5618 50.1823 12.5608C50.3957 12.3322 50.7022 12.1758 51.0189 12.1345C51.2478 12.1048 51.4758 12.0542 51.6951 11.9816C52.5903 13.068 53.36 14.2456 53.9989 15.489L52.8907 15.9493C52.3153 16.1882 52.0426 16.8482 52.2816 17.4236C52.5169 17.9904 53.1905 18.2675 53.7559 18.0327L54.9149 17.5513C55.9875 20.3893 56.4196 23.4795 56.129 26.5789L55.8115 29.9672C55.8115 29.9672 54.3346 45.7317 54.3346 45.7323L54.0595 48.6683H29.5328C28.9099 48.6683 28.4049 49.1733 28.4049 49.7962C28.4049 50.4191 28.9099 50.924 29.5328 50.924ZM68.26 35.3091C63.78 39.5233 59.7588 42.2119 56.7743 43.8722L58.0127 30.6547C59.1028 29.7759 60.1855 28.8316 61.2366 27.843C62.191 26.9451 63.4377 26.4507 64.7471 26.4507C66.1763 26.4507 67.5026 27.0238 68.4813 28.0642C69.4193 29.0613 69.9129 30.3641 69.8711 31.7325C69.8293 33.1009 69.257 34.3711 68.26 35.3091Z" fill="black"/>
</svg>

<svg width="73" height="77" fill="none" xmlns="http://www.w3.org/2000/svg"><path d="M52.266 47.193L48.396 35.3l-.061.02c.052-.018 5.336-1.907 12.13-8.299a6.253 6.253 0 118.57 9.11C60.18 44.459 53.05 46.937 52.265 47.193zM20.734 47.193L24.605 35.3l.06.02c-.052-.018-5.336-1.907-12.13-8.299a6.253 6.253 0 10-8.569 9.11c8.854 8.328 15.984 10.806 16.768 11.062z" fill="#27AE60"/><path d="M11.18 26.052c.02.351.042.702.075 1.053l1.498 15.987c4.429 2.88 7.484 3.939 7.982 4.1l3.87-11.892.061.02c-.053-.018-5.337-1.907-12.13-8.298a6.248 6.248 0 00-1.355-.97zM61.746 27.105c.033-.35.055-.702.074-1.053a6.25 6.25 0 00-1.355.97c-6.794 6.39-12.078 8.28-12.13 8.299l.06-.02 3.871 11.892c.498-.162 3.553-1.22 7.982-4.101l1.498-15.987z" fill="#27AE60"/><path d="M49.297 8.09A20.85 20.85 0 0036.5 3.728a20.85 20.85 0 00-12.797 4.364c-5.678 4.39-8.625 11.448-7.956 18.593l2.165 23.112L36.5 54.031l18.588-4.235 2.166-23.112c.669-7.145-2.279-14.204-7.957-18.593z" fill="#27AE60"/><path d="M52.769 7.299a2.53 2.53 0 01-.265-1.674 2.529 2.529 0 00-2.95-2.95 2.53 2.53 0 01-1.674-.266 2.529 2.529 0 00-3.718 1.895 2.53 2.53 0 01-.77 1.51 2.53 2.53 0 00.653 4.12c.526.25.949.673 1.199 1.199a2.529 2.529 0 004.12.652 2.53 2.53 0 011.51-.77A2.529 2.529 0 0052.77 7.3zM36.5 54.03l-20.454 4.235 2.501 12.817a5.925 5.925 0 005.815 4.79h24.276a5.925 5.925 0 005.815-4.79l2.501-12.817L36.5 54.03z" fill="#F6376D"/><path d="M24.563 71.082l-2.5-12.817 17.445-3.612-3.008-.623-20.454 4.235 2.501 12.817a5.925 5.925 0 005.815 4.79h6.016a5.925 5.925 0 01-5.815-4.79z" fill="#DE3263"/><path d="M56.954 49.796H16.046a2.366 2.366 0 00-2.365 2.366v3.737a2.366 2.366 0 002.365 2.366h40.908a2.366 2.366 0 002.366-2.366v-3.737a2.366 2.366 0 00-2.366-2.366z" fill="#EFEDEE"/><path d="M19.696 55.9v-3.738a2.366 2.366 0 012.366-2.366h-6.015a2.366 2.366 0 00-2.366 2.366v3.737a2.366 2.366 0 002.366 2.366h6.015a2.366 2.366 0 01-2.366-2.366z" fill="#D2D2D2"/><path d="M25.592 26.328c-.623 0-1.128.505-1.128 1.128v1.974a1.128 1.128 0 002.256 0v-1.974c0-.623-.505-1.128-1.128-1.128zM47.405 30.558c.623 0 1.128-.505 1.128-1.128v-1.974a1.128 1.128 0 00-2.256 0v1.974c0 .623.505 1.128 1.128 1.128zM36.498 31.612c1.375 0 2.666-.575 3.541-1.577a1.128 1.128 0 00-1.698-1.484c-.447.511-1.119.805-1.843.805-.723 0-1.395-.294-1.842-.805a1.128 1.128 0 10-1.699 1.484c.876 1.002 2.167 1.577 3.541 1.577zM47.838 9.19a1.853 1.853 0 100-3.705 1.853 1.853 0 000 3.706z" fill="#000"/><path d="M72.126 31.801a7.333 7.333 0 00-2.002-5.282 7.41 7.41 0 00-5.377-2.324 7.353 7.353 0 00-5.056 2.005c-.454.427-.915.842-1.378 1.25l.062-.66a22.478 22.478 0 00-1.376-10.104l1.557-.648a1.128 1.128 0 10-.865-2.083l-1.603.666a21.864 21.864 0 00-2.575-3.978 3.655 3.655 0 00.244-3.884 1.405 1.405 0 01-.147-.927 3.642 3.642 0 00-.779-3.005 3.642 3.642 0 00-2.806-1.324c-.558 0-1.081.203-1.608-.084A3.663 3.663 0 0046.671.97a3.67 3.67 0 00-3.515 2.653 21.944 21.944 0 00-5.53-.995V1.128a1.128 1.128 0 00-2.256 0v1.5a21.796 21.796 0 00-9.608 2.751l-.85-1.4a1.128 1.128 0 10-1.928 1.169l.868 1.432a21.773 21.773 0 00-6.947 8.04l-1.6-.664a1.128 1.128 0 00-.865 2.083l1.555.646a22.541 22.541 0 00-1.373 10.105l.062.66a55.156 55.156 0 01-1.378-1.25 7.353 7.353 0 00-5.057-2.005 7.41 7.41 0 00-5.377 2.324c-2.788 2.964-2.645 7.645.319 10.433 5.345 5.029 10.086 7.975 13.284 9.612l.197 2.104h-.628a3.498 3.498 0 00-3.493 3.494v3.737a3.5 3.5 0 002.538 3.36l2.35 12.039A7.066 7.066 0 0024.36 77h24.276a7.066 7.066 0 006.922-5.702l2.35-12.039a3.5 3.5 0 002.538-3.36v-3.737a3.498 3.498 0 00-3.494-3.494h-.627l.197-2.104c3.197-1.637 7.938-4.583 13.283-9.612a7.333 7.333 0 002.32-5.15zM46.672 3.227c.232 0 .456.058.667.173.732.399 1.6.536 2.42.383.955-.178 1.811.686 1.634 1.635a3.668 3.668 0 00.384 2.42c.224.412.23.888.018 1.306a1.413 1.413 0 01-1.052.75c-.837.117-1.617.5-2.2 1.116a1.42 1.42 0 01-1.921.109c-.237-.2-.355-.486-.508-.748a3.702 3.702 0 00-1.586-1.455 1.402 1.402 0 01-.361-2.283 3.688 3.688 0 001.112-2.184c.103-.793.795-1.222 1.393-1.222zM4.737 35.31a5.131 5.131 0 01-.221-7.245 5.077 5.077 0 013.734-1.613c1.31 0 2.556.494 3.51 1.392a56.233 56.233 0 003.224 2.812l1.239 13.217c-2.985-1.66-7.006-4.349-11.486-8.563zm24.796 15.615h27.42a1.24 1.24 0 011.237 1.238v3.737a1.24 1.24 0 01-1.238 1.238h-7.868a1.128 1.128 0 000 2.256h6.499l-2.239 11.473a4.806 4.806 0 01-4.708 3.878H24.36a4.806 4.806 0 01-4.708-3.878l-2.238-11.473h27.158a1.128 1.128 0 000-2.256H16.045a1.24 1.24 0 01-1.238-1.238v-3.737a1.24 1.24 0 011.238-1.238h8.976a1.128 1.128 0 000-2.256h-6.083l-.275-2.936L17.2 30.134l-.333-3.555a20.28 20.28 0 011.212-9.029l1.161.482a1.138 1.138 0 001.475-.608 1.128 1.128 0 00-.61-1.475l-1.11-.46a19.505 19.505 0 016.03-6.976l.654 1.08a1.139 1.139 0 001.55.38 1.128 1.128 0 00.379-1.55l-.674-1.111A19.561 19.561 0 0135.37 4.89v1.436a1.128 1.128 0 002.255 0V4.89c1.512.085 2.999.337 4.443.76l-.007.012a3.699 3.699 0 00-.544 2.561 3.656 3.656 0 002.042 2.73c.288.138.526.376.664.665a3.716 3.716 0 003.109 2.08 3.698 3.698 0 002.846-1.133l.003-.003c.214-.229.52-.385.837-.427.229-.03.457-.08.676-.152A19.595 19.595 0 0154 15.489l-1.108.46a1.128 1.128 0 00-.61 1.475c.236.566.91.843 1.475.609l1.159-.482a20.216 20.216 0 011.214 9.028l-.317 3.388-1.477 15.765-.276 2.936H29.534a1.128 1.128 0 000 2.256zM68.26 35.309c-4.48 4.214-8.501 6.903-11.486 8.563l1.239-13.217a56.296 56.296 0 003.224-2.812 5.105 5.105 0 013.51-1.392c1.43 0 2.756.573 3.734 1.613a5.092 5.092 0 011.39 3.669 5.092 5.092 0 01-1.611 3.576z" fill="#000"/></svg>
